X: 1
T: Tekeli Quick Step
C: James Hook (c.1800)
N: Used in the opera Tekeli by Theodore Hook (1806),
N: and widely played in the UK during the 1800s.
M: 6/8
L: 1/8
R: jig,march
B: Howe - Complete Preceptor for the Accordeon (1843) p.25
B: The Joseph Kershaw Manuscript (1993) #20.
Z: AK/Fiddler's Companion
S: http://www.ibiblio.org/fiddlers/TE.htm
K: C
GAB \
|: c2c cBc | A2c G2G | GAB cde | f2d B2G \
|  c2c cBc | A2c G2G | GAB cde | fdB c3 :|
|: c2d e3  | efe edc | edc edc | d2c d2e \
|  c2d e3  | efe d2c | d2c d2e | c3  c3 :|
